X:1
T:The Savior Who Loves Me
T:The Savior Who Loves Me
T:Joseph Beers Trowbridge
T:James Martin Gray, 1905
T:Public Domain Courtesy of the Cyber Hymnal™
T:Public Domain Courtesy of the Cyber Hymnal™
C:Joseph Beers Trowbridge
Z:Public Domain
Z:Courtesy of the Cyber Hymnal™
%%score ( 1 2 ) ( 3 4 )
L:1/8
Q:1/4=115
M:6/4
K:C
V:1 treble 
V:2 treble 
V:3 bass 
V:4 bass 
V:1
 [EG]2 | [Ec]3 [Ec] [Ec]2 [Fc]2 [FB]2 [FA]2 | [EG]3 [FA] [EG]2 [CE]4 ([B,D][CE]) | %3
w: 1.~The|Sav- ior who loves me and|suf- fered the loss Of *|
w: 2.~The|an- gels, re- joic- ing and|sing- ing His praise To *|
w: 3.~The|saints will be with Him, O|heav- en- ly bliss! How *|
w: 4.~O|hearts that are wear- y, and|sin- ful, and sad, We *|
 [DF]3 [^CE] [DF]2 [FB]2 [FA]2 [EG]2 | [DF]2 [CE]2 [B,D]2 [CE]4 [EG]2 | %5
w: heav- en- ly glo- ry to|die on the cross, The|
w: Beth- le- hem shep- herds of|ear- li- er days, Will|
w: tear- ful the part- ing from|fac- es we miss! But|
w: car- ry the tid- ings that|make us so glad; We|
 [Ec]3 [Ec] [Ec]2 [Fc]2 [FB]2 [FA]2 | [EG]3 [FA] [EG]2 [CE]4 G2 | %7
w: Babe of the man- ger, though|born with- out stain, This|
w: come in the glo- ry, at-|tend- ing His train, When|
w: clouds are de- scend- ing, and|we who re- main Are|
w: pub- lish the Sav- ior o’er|mount- ain and plain; The|
 [FA]2 [FB]2 [Fc]2 G [Ec]3 [^Fc]2 | [GB]2 [Ec]2 [Fd]2 [Ec]6 || %9
w: Je- sus is com- ing, is|com- ing a- gain!|
w: Je- sus, my Sav- ior, is|com- ing a- gain!|
w: caught up to meet them with|Je- sus a- gain!|
w: Lord who re- deemed us is|com- ing a- gain!|
"^Refrain" [Ec]3 [Ec] [Ec]2 [Ec] [EG]3 [Ec]2 | [Fd] [FG]3 [Fd]2 [Ge] [Ec]4 z | %11
w: ||
w: ||
w: ||
w: ||
 [FA]3 [FB] [Fc]2 G [Gc]3 [^Fc]2 | d6- [=Fd]4 [FG]2 | [Ec]3 [FB] [Gc]2 [Fd]2 [Fc]2 [FA]2 | %14
w: |||
w: |||
w: |||
w: |||
 [EG]2 [CE]2 [FA]2 [EG]4 G2 | [FA]2 [FB]2 [^Dc]2 [EG] [Ec]3 [F_c]2 | [Ec]6- [Ec]4 |] %17
w: |||
w: |||
w: |||
w: |||
V:2
 x2 | x12 | x12 | x12 | x12 | x12 | x10 G2 | x6 G x5 | x12 || x12 | x12 | x12 | G4 ^F2 x6 | x12 | %14
 x10 G2 | x12 | x10 |] %17
V:3
 [C,C]2 | [C,G,]3 [C,G,] [C,G,]2 [C,A,]2 [C,B,]2 [C,C]2 | [C,C]3 [C,C] [C,C]2 [C,G,]4 [G,,G,]2 | %3
w: ~|~ ~ ~ ~ ~ ~|~ ~ ~ ~ ~|
 [G,,G,]3 [G,,G,] [G,,G,]2 [G,,G,]2 [G,,G,]2 [G,,G,]2 | [G,,G,]2 [G,,G,]2 [G,,G,]2 [C,G,]4 [C,C]2 | %5
w: ~ ~ ~ ~ ~ ~|~ ~ ~ ~ ~|
 [C,G,]3 [C,G,] [C,G,]2 [C,A,]2 [C,B,]2 [C,C]2 | [C,C]3 [C,C] [C,C]2 [C,G,]4 [E,C]2 | %7
w: ~ ~ ~ ~ ~ ~|~ ~ ~ ~ ~|
 [F,C]2 [F,B,]2 [F,A,]2 [E,C] [C,C]3 [A,D]2 | [G,D]2 [G,C]2 [G,B,]2 [C,G,C]6 || %9
w: ~ ~ ~ ~ ~ ~|~ ~ ~ ~|
 [C,G,]3 [C,G,] [C,G,]2 [C,G,] [C,C]3 [C,G,]2 | [G,B,] [G,B,]3 [G,B,]2 [C,C] [C,G,]4 z | %11
w: Je- sus is com- ing, is|com- ing, is com- ing!|
 F,3 [F,G,] [F,A,]2 [E,C] [E,C]3 [D,C]2 | ([G,B,]4- [A,C]2 [G,B,]4) [G,B,]2 | %13
w: Je- sus is com- ing a-|gain! * * My|
 [C,G,C]3 [D,G,] [E,G,]2 [F,A,]2 [F,A,]2 [F,C]2 | [C,C]2 [C,G,]2 [C,C]2 [C,C]4 [E,C]2 | %15
w: heart is so hap- py, my|soul is so glad, For|
 [F,C]2 [F,B,]2 [^F,A,]2 [G,C] G,3 [G,B,]2 | [C,G,C]6- [C,G,C]4 |] %17
w: Je- sus is com- ing a-|gain! *|
V:4
 x2 | x12 | x12 | x12 | x12 | x12 | x12 | x12 | x12 || x12 | x12 | F,3 x9 | x12 | x12 | x12 | %15
 x7 G,3 x2 | x10 |] %17

